assets/images/script/r-3-mid.svg

<svg fill="none" height="64" viewBox="0 0 233 64" width="233" xmlns="http://www.w3.org/2000/svg"><path d="m9.24811 30.7128c-1.48511 2.9702 26.90219-3.2692 28.86009-4.0585 12.8539-5.1814 19.3324-17.21358 1.9541-22.39659-14.6085-4.3569064-36.43682 7.82019-37.42796 24.05009-1.55062 25.3914 39.69586 30.2039 57.26926 32.2713 28.3337 3.3334 73.4404-2.4845 94.2464-26.096 16.679-18.9285-17.741-29.4613-30.664-29.4613-8.539 0-19.315 1.42781-24.4259 9.2442-5.9044 9.0303-.4306 20.1336 6.9899 26.38 16.483 13.8757 42.007 16.8191 62.605 18.1127 20.753 1.3033 40.67-.4394 61.102-2.9311" stroke="#000" stroke-linecap="round" stroke-width="5"/></svg>

<svg width="233" height="64" viewBox="0 0 233 64" fill="none" xmlns="http://www.w3.org/2000/svg">
<path d="M9.24811 30.7128C7.763 33.683 36.1503 27.4436 38.1082 26.6543C50.9621 21.4729 57.4406 9.44072 40.0623 4.25771C25.4538 -0.0991964 3.62548 12.0779 2.63434 28.3078C1.08372 53.6992 42.3302 58.5117 59.9036 60.5791C88.2373 63.9125 133.344 58.0946 154.15 34.4831C170.829 15.5546 136.409 5.0218 123.486 5.0218C114.947 5.0218 104.171 6.44961 99.0601 14.266C93.1557 23.2963 98.6295 34.3996 106.05 40.646C122.533 54.5217 148.057 57.4651 168.655 58.7587C189.408 60.062 209.325 58.3193 229.757 55.8276" stroke="black" stroke-width="5" stroke-linecap="round"/>
</svg>
